X:1
T:Be Silent to God
T:Be Silent to God
T:Margaret Mae Simpson
T:H. D. Winant, 1904
T:Public Domain Courtesy of the Cyber Hymnal™
T:Public Domain Courtesy of the Cyber Hymnal™
C:Margaret Mae Simpson
Z:Public Domain
Z:Courtesy of the Cyber Hymnal™
%%score ( 1 2 ) ( 3 4 )
L:1/8
Q:1/4=78
M:6/8
K:Db
V:1 treble 
V:2 treble 
V:3 bass 
V:4 bass 
V:1
 [DF][CE]D [CA]2 [EA]/[EA]/ | [Dd][Dc][DB] [CB] [CA]2 | [CE][CF][CG] [GB]2 [GA]/[GA]/ | %3
w: 1.~What shall I do when my|way is all cloud- ed,|When o’er my path shines no|
w: 2.~When hope de- ferred brings thy|heart nigh to break- ing,|With up- ward look- ing thine|
w: 3.~Still then thy heart for the|voice that would guide thee,|Hush ev- ery thought that His|
 [GA][CE][C=E] [DF]3 | [FA][DF][Fd] [Gc]2 G/[GA]/ | [GA][Ge][Gc] [Fd]2 [FA] | %6
w: bright guid- ing ray;|All is ob- scure, and with|dark- ness en- shroud- ed,|
w: eyes seem to fail;|When thy poor heart has grown|wea- ry with ach- ing,|
w: word you may hear.|Fear not the way, for what-|e’er may be- tide thee,|
 [GB][Gc][=EB] [FA]2 [FA]/[Fd]/ | [Gc][GA][Ge] [Fd]2 ||"^Refrain" [DF] | %9
w: Ne- ver a voice say- ing,|“This is the way.”||
w: And pow’rs of e- vil thy|spir- it as- sail.|Be|
w: He will be with thee to|help and to cheer.||
 [DF][DF][CG] [DA]2 [Fd]/[Fd]/ | [Gc][GB][Gc] [Fd] [FA]2 | [GB][GB][GB] [DA][DF]D | %12
w: |||
w: si- lent to God! Still the|voice of thy griev- ing;|Turn from thy think- ing and|
w: |||
 [B,D][B,C][B,D] [CE]3 | [DF][DE]D [CA]2 [DA]/[DA]/ | [DB][D=A][DB] [Dd] [F_A]2 | %15
w: |||
w: ag- o- nized prayer.|Pa- tient- ly wait, in His|lov- ing hands leav- ing|
w: |||
 [Af][Ad][GB] [FA]2 [DF]/[FA]/ | [GA][GB][Gc] [Fd]2 |] %17
w: ||
w: All of thy hopes, and thy|bur- dens and care.|
w: ||
V:2
 x2 D x3 | x6 | x6 | x6 | x5 G/ x/ | x6 | x6 | x5 || x | x6 | x6 | x5 D | x6 | x2 D x3 | x6 | x6 | %16
 x5 |] %17
V:3
 [D,A,][D,G,][D,F,] [E,G,]2 [G,A,]/[G,A,]/ | [F,A,][F,A,][F,A,] [E,G,] [E,G,]2 | %2
 A,A,A, [A,C]2 [A,C]/[A,C]/ | [A,C]A,A, [D,A,]3 | [D,D][D,A,][D,A,] A,2 [A,C]/[A,C]/ | %5
 [A,C][A,C]A, [D,A,]2 [D,D] | [G,D][G,D][=G,D] [A,C]2 [A,D]/[A,D]/ | [A,E][A,C][A,C] [D,F]2 || %8
 [D,A,] | [D,A,][D,A,][E,A,] [F,A,]2 [D,A,]/[D,A,]/ | [A,,A,][A,,A,][A,,A,] [D,A,] [D,D]2 | %11
 [G,D][G,D][G,D] [F,A,][D,A,][D,F,] | [B,,=G,][B,,G,][B,,G,] [A,,A,]3 | %13
 [D,A,][D,G,][D,F,] [E,G,]2 [F,A,]/[F,A,]/ | G,G,G, [F,A,] [D,A,]2 | %15
 [D,D][F,D][G,D] [A,D]2 A,/[A,D]/ | [A,C][A,D][A,E] [D,D]2 |] %17
V:4
 x6 | x6 | A,A,A, x3 | x A,A, x3 | x3 A,2 x | x2 A, x3 | x6 | x5 || x | x6 | x6 | x6 | x6 | x6 | %14
 G,G,G, x3 | x5 A,/ x/ | x5 |] %17

